icons/1_Primary/Airtable.svg

<svg xmlns="http://www.w3.org/2000/svg" width="1024" height="1024" fill="none">
   <g clip-path="url(#a)">
      <path fill="#F8C18C" d="M512 1024c282.77 0 512-229.23 512-512S794.77 0 512 0 0 229.23 0 512s229.23 512 512 512Z"/>
      <path fill="#fff" d="M484.52 303.429 294 382.219c-10.73 4.45-10.47 19.37.26 23.82l191.56 75.96a69.672 69.672 0 0 0 52.35 0l191.61-76c10.73-4.19 10.73-19.37.26-23.82L539 303.429a70.167 70.167 0 0 0-54.45 0m44.24 220.14v189.78a12.788 12.788 0 0 0 17.54 11.78l213.6-83a12.447 12.447 0 0 0 8.07-11.76v-189.78a12.781 12.781 0 0 0-5.659-10.522 12.796 12.796 0 0 0-11.881-1.258l-213.6 82.72a13.054 13.054 0 0 0-8.11 12m-49.75 9.73-63.35 30.63-6.52 3.11-133.76 64.15c-8.37 4.19-19.37-2.09-19.37-11.51v-178.26c0-3.4 1.83-6.28 4.19-8.64a12.307 12.307 0 0 1 3.14-2.36 13.587 13.587 0 0 1 11.52-.79l202.86 80.41c10.47 3.93 11.26 18.58 1.31 23.3"/>
   </g>
   <defs>
      <clipPath id="a">
         <path fill="#fff" d="M0 0h1024v1024H0z"/>
      </clipPath>
   </defs>
</svg>

<svg width="1024" height="1024" viewBox="0 0 1024 1024" fill="none" xmlns="http://www.w3.org/2000/svg">
<g clip-path="url(#clip0_2_1446)">
<path d="M512 1024C794.77 1024 1024 794.77 1024 512C1024 229.23 794.77 0 512 0C229.23 0 0 229.23 0 512C0 794.77 229.23 1024 512 1024Z" fill="#F8C18C"/>
<path d="M484.52 303.429L294 382.219C283.27 386.669 283.53 401.589 294.26 406.039L485.82 481.999C502.607 488.804 521.383 488.804 538.17 481.999L729.78 405.999C740.51 401.809 740.51 386.629 730.04 382.179L539 303.429C530.382 299.801 521.126 297.932 511.775 297.932C502.424 297.932 493.168 299.801 484.55 303.429M528.79 523.569V713.349C528.805 715.431 529.329 717.478 530.315 719.312C531.301 721.146 532.72 722.711 534.449 723.872C536.177 725.033 538.163 725.754 540.234 725.973C542.304 726.192 544.397 725.903 546.33 725.129L759.93 642.129C762.318 641.232 764.372 639.623 765.816 637.519C767.259 635.416 768.022 632.92 768 630.369V440.589C767.985 438.507 767.461 436.46 766.475 434.627C765.489 432.793 764.07 431.228 762.341 430.067C760.613 428.906 758.627 428.185 756.556 427.965C754.486 427.746 752.393 428.036 750.46 428.809L536.86 511.529C534.474 512.505 532.431 514.165 530.987 516.301C529.544 518.436 528.766 520.952 528.75 523.529M479 533.259L415.65 563.889L409.13 566.999L275.37 631.149C267 635.339 256 629.059 256 619.639V441.379C256 437.979 257.83 435.099 260.19 432.739C261.103 431.789 262.164 430.993 263.33 430.379C265.074 429.41 267.011 428.836 269.002 428.7C270.993 428.563 272.99 428.867 274.85 429.589L477.71 509.999C488.18 513.929 488.97 528.579 479.02 533.299" fill="white"/>
</g>
<defs>
<clipPath id="clip0_2_1446">
<rect width="1024" height="1024" fill="white"/>
</clipPath>
</defs>
</svg>
